X:950
T:Spootiskerry
R:reel
C:Ian Burns
O:Shetland
Z:id:hn-reel-950
M:C|
L:1/8
K:G
G2DE GDEG | DEGA B2AB | G2DE GABd | eged B2AB |
G2DE GDEG | DEGA B2AB | g2ed edBA |1 B2G2 G2DE :|2 B2G2 G2ef ||
g2ed edBA | BdBG E2DE | GABd eged | B2A2 A2ef |
g2ed edBA | BdBG E2DE | GABd eged | B2G2 G2ef |
g2ed edB2 | BABG E2DE | GABd eged | B2A2 A2DE |
G2DE GDEG | DEGA B2AB | g2ed edBA | B2G2 G2DE || 

